symbols/web/airline_seat_recline_extra/materialsymbolsrounded/airline_seat_recline_extra_wght500grad200_24px.svg

<svg xmlns="http://www.w3.org/2000/svg" height="24" width="24"><path d="M8.6 5.75q-.975 0-1.637-.675Q6.3 4.4 6.3 3.45q0-.975.663-1.65.662-.675 1.637-.675t1.638.675q.662.675.662 1.65 0 .95-.662 1.625-.663.675-1.638.675Zm-1.075 15.2q-1.375 0-2.2-.675-.825-.675-1.1-2.05L2.35 8.7q-.15-.675.275-1.163Q3.05 7.05 3.7 7.05q.525 0 .888.313.362.312.487.812l1.95 10.05h5.525q.575 0 .962.4.388.4.388.95 0 .575-.388.975-.387.4-.962.4ZM20.775 22q-.5.275-1.012.125-.513-.15-.788-.625L16.5 17.225H9.7q-.825 0-1.45-.513-.625-.512-.8-1.362L6.375 10.2q-.275-1.4.638-2.475Q7.925 6.65 9.4 6.65q.925 0 1.763.587Q12 7.825 12.25 8.9l1 4.625h2.825q.7 0 1.213.325.512.325.837.9l3.15 5.425q.275.5.125 1.025-.15.525-.625.8Z"/></svg>

<svg xmlns="http://www.w3.org/2000/svg" height="24" width="24"><path d="M8.6 5.75Q7.625 5.75 6.963 5.075Q6.3 4.4 6.3 3.45Q6.3 2.475 6.963 1.8Q7.625 1.125 8.6 1.125Q9.575 1.125 10.238 1.8Q10.9 2.475 10.9 3.45Q10.9 4.4 10.238 5.075Q9.575 5.75 8.6 5.75ZM7.525 20.95Q6.15 20.95 5.325 20.275Q4.5 19.6 4.225 18.225L2.35 8.7Q2.2 8.025 2.625 7.537Q3.05 7.05 3.7 7.05Q4.225 7.05 4.588 7.363Q4.95 7.675 5.075 8.175L7.025 18.225Q7.025 18.225 7.025 18.225Q7.025 18.225 7.025 18.225H12.55Q13.125 18.225 13.512 18.625Q13.9 19.025 13.9 19.575Q13.9 20.15 13.512 20.55Q13.125 20.95 12.55 20.95ZM20.775 22Q20.275 22.275 19.763 22.125Q19.25 21.975 18.975 21.5L16.5 17.225H9.7Q8.875 17.225 8.25 16.712Q7.625 16.2 7.45 15.35L6.375 10.2Q6.1 8.8 7.013 7.725Q7.925 6.65 9.4 6.65Q10.325 6.65 11.163 7.237Q12 7.825 12.25 8.9L13.25 13.525H16.075Q16.775 13.525 17.288 13.85Q17.8 14.175 18.125 14.75L21.275 20.175Q21.55 20.675 21.4 21.2Q21.25 21.725 20.775 22Z"/></svg>
